src/assets/outline/Bucket.svg

<svg width="24" height="24" viewBox="0 0 24 24"  xmlns="http://www.w3.org/2000/svg">
<path d="M9.02 19.7502C8.16 19.7502 7.3 19.3403 6.48 18.5203L2.47 14.5103C1.66 13.7003 1.25 12.8502 1.25 11.9702C1.25 11.1002 1.66 10.2402 2.47 9.43024L9.15 2.75024C9.29 2.61024 9.48 2.53027 9.68 2.53027C9.88 2.53027 10.07 2.61024 10.21 2.75024L17.56 10.1002C17.88 10.4202 18.06 10.8402 18.06 11.3002C18.06 11.7502 17.88 12.1802 17.56 12.5002L11.54 18.5203C10.74 19.3403 9.88 19.7502 9.02 19.7502ZM9.69 4.35022L3.54 10.5002C3.02 11.0202 2.76 11.5202 2.76 11.9802C2.76 12.4402 3.02 12.9402 3.54 13.4502L7.55 17.4602C8.6 18.5102 9.45 18.5102 10.5 17.4602L16.52 11.4402C16.58 11.3802 16.59 11.2302 16.52 11.1602L9.69 4.35022Z" />
<path d="M9.69004 4.03964C9.50004 4.03964 9.31004 3.96967 9.16004 3.81967L7.82004 2.47965C7.53004 2.18965 7.53004 1.70965 7.82004 1.41965C8.11004 1.12965 8.59004 1.12965 8.88004 1.41965L10.22 2.75968C10.51 3.04968 10.51 3.52967 10.22 3.81967C10.07 3.96967 9.88004 4.03964 9.69004 4.03964Z" />
<path d="M2.07022 12.6697C1.67022 12.6697 1.34022 12.3597 1.32022 11.9497C1.30022 11.5397 1.62023 11.1897 2.04023 11.1697L17.1702 10.5097C17.5802 10.4897 17.9302 10.8096 17.9502 11.2296C17.9702 11.6396 17.6502 11.9897 17.2302 12.0097L2.10022 12.6697C2.09022 12.6697 2.08022 12.6697 2.07022 12.6697Z" />
<path d="M16 22.75H3C2.59 22.75 2.25 22.41 2.25 22C2.25 21.59 2.59 21.25 3 21.25H16C16.41 21.25 16.75 21.59 16.75 22C16.75 22.41 16.41 22.75 16 22.75Z" />
<path d="M18.85 20.83C17.42 20.83 16.25 19.6601 16.25 18.2301C16.25 16.7801 17.96 14.8601 18.3 14.4801C18.58 14.1701 19.12 14.1701 19.4 14.4801C19.74 14.8501 21.45 16.77 21.45 18.22C21.45 19.67 20.28 20.83 18.85 20.83ZM18.85 16.1701C18.3 16.8901 17.75 17.7701 17.75 18.2401C17.75 18.8501 18.24 19.34 18.85 19.34C19.46 19.34 19.95 18.8501 19.95 18.2401C19.95 17.7601 19.4 16.8801 18.85 16.1701Z" />
</svg>

<?xml version="1.0" encoding="UTF-8"?>
<svg width="24" height="24" viewBox="0 0 24 24" xmlns="http://www.w3.org/2000/svg">
 <path d="m9.02 19.75c-0.86 0-1.72-0.4099-2.54-1.2299l-4.01-4.01c-0.81-0.81-1.22-1.6601-1.22-2.5401 0-0.87 0.41-1.73 1.22-2.54l6.68-6.68c0.14-0.14 0.33-0.21997 0.53-0.21997s0.39 0.07997 0.53 0.21997l7.35 7.35c0.32 0.32 0.5 0.74 0.5 1.2 0 0.45-0.18 0.88-0.5 1.2l-6.02 6.0201c-0.8 0.82-1.66 1.2299-2.52 1.2299zm0.67-15.4-6.15 6.15c-0.52 0.52-0.78 1.02-0.78 1.48s0.26 0.96 0.78 1.47l4.01 4.01c1.05 1.05 1.9 1.05 2.95 0l6.02-6.02c0.06-0.06 0.07-0.21 0-0.28l-6.83-6.81z"/>
 <path d="m9.69 4.0396c-0.19 0-0.38-0.06997-0.53-0.21997l-1.34-1.34c-0.29-0.29-0.29-0.77 0-1.06s0.77-0.29 1.06 0l1.34 1.34c0.29 0.29 0.29 0.76999 0 1.06-0.15 0.15-0.33996 0.21997-0.52996 0.21997z"/>
 <path d="m2.0702 12.67c-0.4 0-0.73-0.31-0.75-0.72s0.30001-0.76 0.72001-0.78l15.13-0.66c0.41-0.02 0.76 0.2999 0.78 0.7199 0.02 0.41-0.3 0.7601-0.72 0.7801l-15.13 0.66h-0.03z"/>
 <path d="m16 22.75h-13c-0.41 0-0.75-0.34-0.75-0.75s0.34-0.75 0.75-0.75h13c0.41 0 0.75 0.34 0.75 0.75s-0.34 0.75-0.75 0.75z"/>
 <path d="m18.85 20.83c-1.43 0-2.6-1.1699-2.6-2.5999 0-1.45 1.71-3.37 2.05-3.75 0.28-0.31 0.82-0.31 1.1 0 0.34 0.37 2.05 2.2899 2.05 3.7399s-1.17 2.61-2.6 2.61zm0-4.6599c-0.55 0.72-1.1 1.6-1.1 2.07 0 0.61 0.49 1.0999 1.1 1.0999s1.1-0.4899 1.1-1.0999c0-0.48-0.55-1.36-1.1-2.07z"/>
</svg>
